public/assets/isolate3.svg

<svg width="119" height="101" viewBox="0 0 119 101" fill="none" xmlns="http://www.w3.org/2000/svg">
<g clip-path="url(#clip0_57_362)">
<path d="M73.1999 101L7.65967 92.7192V66.2314H73.1999V101Z" fill="url(#paint0_linear_57_362)"/>
<path d="M109.445 93.2142L73.1997 101V66.2314H109.445V93.2142Z" fill="url(#paint1_linear_57_362)"/>
<path d="M73.1997 101V66.2314" stroke="#FEF7EC" stroke-miterlimit="10" stroke-linejoin="round"/>
<path d="M7.65967 34.4726V66.2312H73.1999H109.446V33.5361" stroke="#062023" stroke-miterlimit="10" stroke-linecap="round" stroke-linejoin="round"/>
<path d="M73.1997 24.6265V66.2311" stroke="#062023" stroke-miterlimit="10" stroke-linecap="round" stroke-linejoin="round"/>
<path d="M73.7502 23.3156L2.84229 33.8572V35.0478L74.1528 24.4259L97.7306 5.56341L113.941 33.3355L114.491 32.1716L97.9454 3.78418L73.7502 23.3156Z" stroke="#062023" stroke-width="0.5" stroke-miterlimit="10" stroke-linecap="round" stroke-linejoin="round"/>
<path d="M73.7502 23.3156L2.84229 33.8572L29.681 18.2856L97.9453 3.78418L73.7502 23.3156Z" stroke="#062023" stroke-miterlimit="10" stroke-linecap="round" stroke-linejoin="round"/>
<path d="M109.513 33.6031L113.941 33.3355L97.7305 5.56348L95.0332 7.75742L109.513 33.6031Z" stroke="#062023" stroke-miterlimit="10" stroke-linecap="round" stroke-linejoin="round"/>
</g>
<defs>
<linearGradient id="paint0_linear_57_362" x1="-0.660542" y1="83.612" x2="95.9808" y2="83.612" gradientUnits="userSpaceOnUse">
<stop stop-color="#18808A"/>
<stop offset="1" stop-color="#28C985"/>
</linearGradient>
<linearGradient id="paint1_linear_57_362" x1="67.2713" y1="83.6098" x2="121.722" y2="83.6098" gradientUnits="userSpaceOnUse">
<stop stop-color="#28C985"/>
<stop offset="1" stop-color="#18808A"/>
</linearGradient>
<clipPath id="clip0_57_362">
<rect width="118" height="101" fill="white" transform="translate(0.274902)"/>
</clipPath>
</defs>
</svg>

<svg width="119" height="101" fill="none" xmlns="http://www.w3.org/2000/svg"><g clip-path="url(#a)"><path d="M73.2 101 7.66 92.72V66.23H73.2V101z" fill="url(#b)"/><path d="M109.445 93.214 73.2 101V66.231h36.245v26.983z" fill="url(#c)"/><path d="M73.2 101V66.231" stroke="#FEF7EC" stroke-miterlimit="10" stroke-linejoin="round"/><path d="M7.66 34.473V66.23h101.786V33.536M73.2 24.627V66.23" stroke="#062023" stroke-miterlimit="10" stroke-linecap="round" stroke-linejoin="round"/><path d="M73.75 23.316 2.842 33.857v1.19l71.31-10.621L97.732 5.563l16.21 27.773.55-1.164L97.945 3.784 73.75 23.316z" stroke="#062023" stroke-width=".5" stroke-miterlimit="10" stroke-linecap="round" stroke-linejoin="round"/><path d="M73.75 23.316 2.842 33.857l26.839-15.571L97.945 3.784 73.75 23.316zM109.513 33.603l4.428-.267-16.21-27.773-2.698 2.194 14.48 25.846z" stroke="#062023" stroke-miterlimit="10" stroke-linecap="round" stroke-linejoin="round"/></g><defs><linearGradient id="b" x1="-.661" y1="83.612" x2="95.981" y2="83.612" gradientUnits="userSpaceOnUse"><stop stop-color="#18808A"/><stop offset="1" stop-color="#28C985"/></linearGradient><linearGradient id="c" x1="67.271" y1="83.61" x2="121.722" y2="83.61" gradientUnits="userSpaceOnUse"><stop stop-color="#28C985"/><stop offset="1" stop-color="#18808A"/></linearGradient><clipPath id="a"><path fill="#fff" transform="translate(.275)" d="M0 0h118v101H0z"/></clipPath></defs></svg>
